!!!OTL: Shoo Fly
!!!COM: unknown
!!!ODT: 1850 (19th century)
!!!YOR: The Folksong Fake Book
!!!YOY: 2000
!!!AST: Folk song
!!!YEC: Brian Luke, 2001
**kern	**harm
*k[f#c#]	*k[f#c#]
*M2/4	*M2/4
*D:	*D:
*>A	*>A
=1	=1
8f#	I
4d	.
8e	.
=2	=2
8.f#	.
16g	.
4e	V
=3	=3
8e	.
4c#	.
8d	.
=4	=4
8.e	.
16f#	.
4d	I
=5	=5
8f#	.
4d	.
8e	.
=6	=6
8.f#	.
16g	.
8e	V
8e	.
=7	=7
8.a	.
16a	.
8a	.
8g	.
=8	=8
8f#	.
8e	.
8d	I;
*>B	*>B
8A	.
=9	=9
8f#	I
8f#	.
8f#	.
8f#	.
=10	=10
4.f#	.
8A	.
=11	=11
8f#	.
16f#	.
16f#	.
8g	.
8f#	.
=12	=12
4.e	V7
8A	.
=13	=13
8e	.
8e	.
8e	.
8e	.
=14	=14
8e	.
8e	.
8e	.
8e	.
=15	=15
8a	.
16a	.
16a	.
8g	.
8e	.
=16	=16
4d	I;
4r	.
*-	*-
